public/assets/img/protonmail.svg

<svg id="svg2" xmlns="http://www.w3.org/2000/svg" viewBox="0 0 800.00067 800.00073"><defs><style>.cls-1{fill:#29fd2e;}</style></defs><path class="cls-1" d="M400.002,223.9177S318.3204,225.052,297.524,307.48935v61.63691H502.47641V307.48935C481.6796,225.052,400.002,223.9177,400.002,223.9177Z" transform="translate(0.00034 0.00039)"/><path class="cls-1" d="M616.4,0H182.8C81.6.2-.2,82.4,0,183.6V617.2C.2,718.4,82.4,800.2,183.6,800H617.2c101.2-.2,183-82.4,182.8-183.6V182.8C799.8,81.6,717.6-.2,616.4,0ZM580.51694,633.701s-1.02448,19.91583-22.95856,19.91583H242.442c-21.93409,0-22.95893-19.91583-22.95893-19.91583V462.52768S340.50491,548.9982,358.65482,561.5994c18.15393,12.60449,41.34716,14.8761,41.34716,14.8761s23.19-2.27161,41.33991-14.8761c18.1543-12.6012,139.17505-99.07172,139.17505-99.07172Zm0-213.14837s-1.2771,12.10137-35.30963,36.68237c-34.03217,24.577-122.14014,93.77893-145.20533,93.77893-23.06842,0-111.17675-69.202-145.20892-93.77893-34.03217-24.581-35.31-36.68237-35.31-36.68237V307.48935C250.34689,141.48435,400.002,146.39853,400.002,146.39853s149.64783-4.91418,180.515,161.09082Z" transform="translate(0.00034 0.00039)"/></svg>

<?xml version="1.0" encoding="utf-8"?>
<!-- Generator: Adobe Illustrator 25.2.3, SVG Export Plug-In . SVG Version: 6.00 Build 0)  -->
<svg version="1.1" id="svg2" xmlns="http://www.w3.org/2000/svg" xmlns:xlink="http://www.w3.org/1999/xlink" x="0px" y="0px"
	 viewBox="0 0 800 800" style="enable-background:new 0 0 800 800;" xml:space="preserve">
<style type="text/css">
	.st0{fill:#29FD2E;}
</style>
<g>
	<path class="st0" d="M400,223.9c0,0-81.7,1.1-102.5,83.6v61.6h205v-61.6C481.7,225.1,400,223.9,400,223.9z"/>
	<path class="st0" d="M616.4,0H182.8C81.6,0.2-0.2,82.4,0,183.6v433.6c0.2,101.2,82.4,183,183.6,182.8h433.6
		c101.2-0.2,183-82.4,182.8-183.6V182.8C799.8,81.6,717.6-0.2,616.4,0z M580.5,633.7c0,0-1,19.9-23,19.9H242.4
		c-21.9,0-23-19.9-23-19.9V462.5c0,0,121,86.5,139.2,99.1c18.2,12.6,41.3,14.9,41.3,14.9s23.2-2.3,41.3-14.9
		c18.2-12.6,139.2-99.1,139.2-99.1V633.7z M580.5,420.6c0,0-1.3,12.1-35.3,36.7C511.2,481.8,423.1,551,400,551
		c-23.1,0-111.2-69.2-145.2-93.8c-34-24.6-35.3-36.7-35.3-36.7V307.5C250.3,141.5,400,146.4,400,146.4s149.6-4.9,180.5,161.1
		L580.5,420.6z"/>
</g>
</svg>
